X: 1704
T: Sen Beni Bir Bûseye...
C: Mahmud Celâleddin Paşa
O: Turkey
F: http://compmusic.upf.edu/node/140
N: kurdilihicazkar--sarki--devrihindi--sen_beni--mahmud_celaleddin_pasa
N: makam= kurdilihicazkar
N: form= sarki
N: usul= devrihindi = 7/4
M: 7/4
L: 1/16
K: C _B _e _A 
Q: 1/4=90
%%MIDI tuningsystem comma53
^f4 g4 =a4 b2a2 {c'}b2a2 g3f e4  | \
w:  ARANAĞME  | 
^f2g2 _7/8a4 g2f2 f2e2 e2d2 d8  | \
w:   | 
_1/4B2c2 d2_2/4e2 f2g2 f2_e2 d2c2 _B2c2 d4  | 
w:   | 
B2c2 B2A2 {B}A2G2 G8 cde^f g4  | ^f4 g4 =a4 b2a2 {c'}b2a2 g3f e4  | 
w:   |  ARANAĞME  | 
^f2g2 _7/8a4 g2f2 f2e2 e2d2 d8  | \
w:   | 
_1/4B2c2 d2_2/4e2 f2g2 f2_e2 d2c2 _B2c2 d4  | 
w:   | 
B2c2 B2A2 {B}A4 G4 G8 z4  | g8 _7/8a4 g3^f e2f2 g8  | \
w:   |  Sen  be ni  *  *  *  bir   | 
_1/4b2_7/8a2 g2^f2 e2d2 e3d c2_1/4B2 c8  | 
w:  bû *  *  *  se *  ye   | 
f4 g4 a2c'2 b2a2 g2f2 g3f e2fg  | \
w:  et *  *  *  *  *  *  *  tin  *  *  fe  | 
f2g6 f2e2 d2c2 B2A2 G8  | 
w:  dâ   *  SAZ  | 
g8 _7/8a4 g3^f e2f2 g8  | _1/4b2_7/8a2 g2^f2 e2d2 e3d c2_1/4B2 c8  | \
w:  Sen  be ni  *  *  *  bir   |  bû *  *  *  se *  ye   | 
f4 g4 a2c'2 b2a2 g2f2 g3f e2fg  | 
w:  et *  *  *  *  *  *  *  tin  *  *  fe  | 
f2g6 g2a2 g3f _2/4e2f2 g8  | g2a2 c'2b2 b2a2 a2g2 {a}g2f2 f2{a}gf ede2  | 
w:  dâ   *  SAZ  |  Yüz *  *  *  yü *  ze  *  *  *  *  bak  | 
d2e2 f2d2 {e}d2c2 c2B2 A2G2 G4 d4  | \
w:  maz  *  *  *  *  mı  *  za *  *  *  lim   | 
d2{f}ed c4 B2c2 d2ef edc2 B3A A2AG  | 
w:  bir  *  *  *  *  *  *  *  *  *  *  *  *  *  *  *  da  | 
G8 g2a2 g3f _2/4e2f2 g8  | g2a2 c'2b2 b2a2 a2g2 {a}g2f2 f2{a}gf ede2  | 
w:  ha   SAZ  |  Yüz *  *  *  yü *  ze  *  *  *  *  bak  | 
d2e2 f2d2 {e}d2c2 c2B2 A2G2 G4 d4  | \
w:  maz  *  *  *  *  mı  *  za *  *  *  lim   | 
d2{f}ed c4 B2c2 d2ef edc2 B3A A2AG  | 
w:  bir  *  *  *  *  *  *  *  *  *  *  *  *  *  *  *  da  | 
G8 d2e2 d3c _1/4B2c2 d8  | c8 d4 d2{_2/4e}dc d2.e2 f2ed e2f2  | \
w:  ha   SAZ  |  Ver di ğim  *  *  *  *  *  bun  | 
g2=a2 g2f2 f2_2/4e2 f2_3/4e2 e2d2 d8  | 
w:  ca  *  *  *  e *  mek   | 
f4 g4 a2c'2 b2a2 g2f2 g3f e2fg  | \
w:  ol *  *  *  *  *  *  *  du  *  *  he  | 
f3_2/4e f2a2 g2f2 _e3d c2d2 B2A2 G4  | 
w:  bâ    | 
c8 d4 d2{_2/4e}dc d2.e2 f2ed e2f2  | \
w:  Ver di ğim  *  *  *  *  *  bun  | 
g2=a2 g2f2 f2_2/4e2 f2_3/4e2 e2d2 d8  | 
w:  ca  *  *  *  e *  mek   | 
f4 g4 a2c'2 b2a2 g2f2 g3f e2fg  | \
w:  ol *  *  *  *  *  *  *  du  *  *  he  | 
f2g6 g2a2 g3f _2/4e2f2 g8  | 
w:  bâ   *  SAZ  | 
g2a2 c'2b2 b2a2 a2g2 {a}g2f2 f2{a}gf ede2  | \
w:  Yüz *  *  *  yü *  ze  *  *  *  *  bak  | 
d2e2 f2d2 {e}d2c2 c2B2 A2G2 G4 d4  | 
w:  maz  *  *  *  *  mı  *  za *  *  *  lim   | 
d2{f}ed c4 B2c2 d2ef edc2 B3A A2AG  | \
w:  bir  *  *  *  *  *  *  *  *  *  *  *  *  *  *  *  da  | 
G8 g2a2 g3f _2/4e2f2 g8  | 
w:  ha   SAZ  | 
g2a2 c'2b2 b2a2 a2g2 {a}g2f2 f2{a}gf ede2  | \
w:  Yüz *  *  *  yü *  ze  *  *  *  *  bak  | 
d2e2 f2d2 {e}d2c2 c2B2 A2G2 G4 d4  | 
w:  maz  *  *  *  *  mı  *  za *  *  *  lim   | 
d2{f}ed c4 B2c2 d2ef edc2 B3A A2AG  | \
w:  bir  *  *  *  *  *  *  *  *  *  *  *  *  *  *  *  da  | 
G8 |
w:  ha    | 


